X:1
T:Birmingham -- Hornpipe
Z:Bob Puckette <bpuckette:msn.com> 2003-3-10
R:hornpipe
B:Cole's 1000 Fiddle Tunes
M:C|
L:1/8
K:D
(uAG)|F2F2 FAdF|GFED CEAG|FAdf gfed|((3efe) ((3cdB) ((3ABA) ((3FGE)|
F2F2 FAdF|GFED CEAG|FAdA BGEC|D2D2D2:|
|:uf2|efgf edcA|defg a2a2|\
((3gag) e2 ((3faf) d2|((3efe) ((3cdB) ((3ABG) ((3FGE)|
F2F2 FAdF|GFED CEAG|EAdA Bgec|d2d2d2:|
